X: 1
T:The Golden Keyboard
M:C|
L:1/8
K:EDor
|:\
"Em"BGEF GFGA | "G"B2gB fBeB |\
"Em"BGEF GBAG | "D"(3FED AD BDAF | "Em"EDEF GFGA |
"G"B2gB fBec | "D"(3ded "A"ce "D"dBAF | DFAF "Em"GE E2 :|\
|:\
"Em"Be~e2 Be~e2 | Beef edBe |
"D"dA~A2 "A"eAce | "D"(3ded "A"ce "D"dBAF | "Em"EDEF GFGA |\
"G"B2gB fBec | "D"(3ded "A"ce "D"dBAG | DFAF "Em"GE E2 :|
